X:1
T:Title
%%score { ( 1 4 5 ) | ( 2 3 ) }
L:1/8
Q:1/4=138
M:6/4
K:C
V:1 treble nm="Grand Piano"
V:4 treble 
V:5 treble 
V:2 bass 
V:3 bass 
V:1
 [EG]3 [_E^F] [=EG]2 [=FA]2 [EG]2 [DF]2 | [CE]2 [EG]2 [Ec]2 [Ge]6 | d2 c2 B2 [Bd]2 c2 [CFA]2 | %3
w: Chas.~H.~Gabriel * * * * *|||
 [CEG]12 | [CEG]2 [DF]2 [^CE]2 [DF]2 [B,D]2 [DF]2 | d d3 ^c2 d6 | B2 A2 G2 A4 [B,DG]2 | [G,CE]12 | %8
w: |||||
 [EG]3 [_E^F] [=EG]2 [=FA]2 [EG]2 [DF]2 | [CE]2 [EG]2 [Ec]2 [Ge]6 | A3 A A2 [^FA]2 [FB]2 [Fc]2 | %11
w: |||
 B2 B2 c2 d6 | [Ge]3 [^F_e] [G=e]2 [Ec]2 [=Fd]2 [Ge]2 | d2 c2 A2 [EG]6 | .B12 | c12 | .G12 | %17
w: ||||||
 [G,CE]2 [EG]2 [Ec]2 [Ge]6 | c3- [Ac-] [Ac-]2 [Ac]2 B2 A2 | G12 | .B12 | [Gc]2 [Gd]2 [Ge]2 A6 | %22
w: |||||
 .B12 | c12 |] %24
w: ||
V:2
 [C,C]3 [C,C] [C,C]2 [C,C]2 [C,C]2 [C,G,]2 | [C,G,]2 [C,C]2 [C,G,]2 [C,C]6 | %2
 [F,A,F]2 [F,A,F]2 [F,^G,F]2 z2 A2 F,2 | C,12 | G,,2 [G,,G,]2 [G,,G,]2 [G,,G,]2 [G,,G,]2 [G,,G,]2 | %5
 [G,B,F] [G,B,F]3 [G,_B,E]2 [G,=B,F]6 | [G,DF]2 [G,CF]2 [G,B,F]2 [G,B,F]4[K:bass] G,,2 | C,12 | %8
 [C,C]3 [C,C] [C,C]2 [C,C]2 [C,C]2 [C,G,]2 | [C,G,]2 [C,C]2 [C,G,]2 [C,C]6 | %10
 [F,CF]3 [F,CF] [F,CF]2 [D,C]2 [D,B,]2 [D,A,]2 | [G,F]2 [G,DF]2 [G,CE]2 [G,B,G]6 | %12
 [C,C]3 [C,C] [C,C]2 [C,C]2 [C,C]2 [C,C]2 | [F,A,F]2 [F,A,F]2 [F,CF]2 [C,C]6 | %14
 [G,DF]3 [G,D] [G,D]2 [G,D]4 [G,B,F]2 | [C,C]4 [C,A,]2 .[C,G,]6 | [C,C]3 [C,C] [C,C]2 [C,C]4 C,2 | %17
 z2 C2 [C,C]2 [C,C]6 | [F,C]3 [F,C] [F,C]2 z2[K:treble] G2 [F,CF]2 | [C,C]4 [C,C]2 .[C,C]6 | %20
 [G,DF]3 [G,D] [G,D]2 [G,D]2 [G,DF]2[K:bass] [F,D]2 | [E,C]2 [D,B,]2 [C,C]2 [F,CF]6 | %22
 [G,F]3 G,[K:bass] G,2 [G,D]4 [G,B,]2 | [C,C]4 [C,A,]2 .[C,G,]6 |] %24
V:3
 x12 | x12 | z6 .[F,A,]6 | x12 | x12 | x12 | x10[K:bass] x2 | x12 | x12 | x12 | x12 | x12 | x12 | %13
 x12 | x12 | x12 | x12 | .C,6 z6 | z6 .[F,C]6[K:treble] | x12 | x10[K:bass] x2 | x12 | %22
 x4[K:bass] x8 | x12 |] %24
V:4
 x12 | x12 | x12 | x12 | x12 | x12 | x12 | x12 | x12 | x12 | x12 | x12 | x12 | x12 | %14
 z2 z F F2 z2 c2 d2 | E4 F2 .E6 | E3 E E2 z2 A2 [CEG]2 | x12 | .A6 z6 | E4 E2 .E6 | %20
 z2 z F F2 F2 A2 [GB]2 | x12 | z2 z F F2 z2 c2 d2 | E4 F2 .E6 |] %24
V:5
 x12 | x12 | x12 | x12 | x12 | x12 | x12 | x12 | x12 | x12 | x12 | x12 | x12 | x12 | z6 .F6 | x12 | %16
 z6 .E6 | x12 | x12 | x12 | x12 | x12 | z6 .F6 | x12 |] %24

